app/dist/common/images/shaanxi-construction-engineering-limited.svg

<svg height="18" viewBox="0 0 18 18" width="18" xmlns="http://www.w3.org/2000/svg"><path d="m0 0h18v18h-18z" fill="#f0f3fa"/><path d="m7.74 4h2.99l-2.74 3h-2.99zm0 7h2.99l-2.74 3h-2.99z" fill="#224d80"/><path d="m7.99 7.5h-3l2.76 3.5h2.99zm3.61.5h-2.6l2.4 3h2.6z" fill="#e42e2a"/><path d="m11.6 14h-2.6l2.4-3h2.6z" fill="#224d80"/></svg>

<!-- by TradingView --><svg width="18" height="18" viewBox="0 0 18 18" xmlns="http://www.w3.org/2000/svg"><path fill="#F0F3FA" d="M0 0h18v18H0z"/><path d="M7.74 4h2.99L7.99 7H5l2.74-3ZM7.74 11h2.99l-2.74 3H5l2.74-3Z" fill="#224D80"/><path d="M7.99 7.5h-3L7.75 11h2.99L7.99 7.5ZM11.6 8H9l2.4 3H14l-2.4-3Z" fill="#E42E2A"/><path d="M11.6 14H9l2.4-3H14l-2.4 3Z" fill="#224D80"/></svg>
